X: 5
T: The Clumsy Lover
R: reel
M: 4/4
L: 1/8
K: Amix
|:ce ec fe dc |df fd gf ed |ce ec fe dc |d2 B2 B2 cd |
ce ec fe dc |df fd gf ed |ce ec d2 GA |BA AB A4 :|
|:ce ea ae cA |dA df af de |ce ea ae ce |d2 B2 B2 cd |
ce ea ae cA |dA df af de |ce ec d2 GA |BA AB A4 :|
|:ca ac aa ca |da ad aa de |ca ac aa ca |Ba ca da Ba |
ca ac aa ca |da ad aa de |ca ac d2 GA |BA AB A4 :|]


Tune 16	Setting 29450

